build/img/icon/Advantages/operator.svg

<svg width="40" height="40" viewBox="0 0 40 40" fill="none" xmlns="http://www.w3.org/2000/svg">
<path d="M35.2593 33.1072C35.1704 27.671 29.6122 26.0649 25.5538 24.8921C25.0803 24.7553 24.6249 24.6237 24.1982 24.4923V22.2497C25.0279 21.7296 25.7549 21.0603 26.3414 20.2796H28.8136C30.0233 20.2796 31.0076 19.2953 31.0076 18.0855V15.4296C31.1543 15.0877 31.2358 14.7115 31.2358 14.3164V13.4904C31.2358 13.0957 31.1543 12.7197 31.0076 12.378V11.0079C31.0076 4.93814 26.0697 0 20 0C13.9316 0 8.99458 4.93814 8.99458 11.0079V12.3389C8.99458 12.3493 8.99576 12.3594 8.99615 12.3698C8.84724 12.7137 8.76427 13.0925 8.76427 13.4904V14.3165C8.76427 15.878 10.0337 17.1483 11.5939 17.1483H12.2395C12.6867 19.2927 14.0032 21.1216 15.8019 22.2493V24.4923C15.3751 24.6237 14.9198 24.7553 14.4462 24.8921C10.3878 26.0649 4.82965 27.671 4.74074 33.1072C4.74066 33.1115 4.74066 33.1157 4.74066 33.12V39.2187C4.74066 39.6502 5.09051 40 5.52191 40H7.83817C8.26958 40 8.61943 39.6502 8.61943 39.2187C8.61943 38.7873 8.26958 38.4375 7.83817 38.4375H6.30309V33.1265C6.33598 31.2298 7.20723 29.808 9.04482 28.6521C10.2574 27.8894 11.7398 27.346 13.2011 26.8914L15.0887 30.569C15.2991 30.979 15.8377 31.1182 16.2206 30.86L17.0622 30.2922L17.7848 33.0081L16.5467 38.4374H14.8536C14.4222 38.4374 14.0723 38.7872 14.0723 39.2187C14.0723 39.6502 14.4222 39.9999 14.8536 39.9999H34.4781C34.9095 39.9999 35.2594 39.6502 35.2594 39.2187V33.1199C35.2594 33.1157 35.2594 33.1115 35.2593 33.1072ZM25.12 26.3932C25.1715 26.408 25.2239 26.4232 25.2757 26.4382L23.9252 29.0721L21.3978 27.3678L23.5393 25.9234C24.0368 26.0799 24.5658 26.233 25.12 26.3932ZM20.0006 28.3103L21.5671 29.3667L20.81 32.2125H19.19L18.4331 29.3675L20.0006 28.3103ZM20.0004 26.4257L17.3643 24.6481V23.0034C18.1894 23.2952 19.0762 23.4552 19.9999 23.4552C20.9236 23.4552 21.8106 23.2957 22.6356 23.0039V24.6481L20.0004 26.4257ZM26.3648 11.1508C26.3541 11.144 26.3435 11.1372 26.3328 11.1304C24.7297 10.11 23.3452 9.22863 21.1758 9.84934C21.1557 9.85512 21.1356 9.86168 21.116 9.86902C20.6561 10.0418 20.2379 10.2028 19.8334 10.3585C17.3628 11.3095 16.0139 11.8289 13.6352 11.762V11.1364C13.6352 7.62667 16.4904 4.77135 19.9999 4.77135C23.5095 4.77135 26.3647 7.62667 26.3647 11.1364V11.1508H26.3648ZM29.4451 18.0855C29.4451 18.4338 29.1619 18.7171 28.8136 18.7171H27.2567C27.4765 18.2187 27.6468 17.6938 27.7606 17.1483H28.4062C28.773 17.1483 29.1233 17.0773 29.4452 16.9496V18.0855H29.4451ZM29.6733 14.3164C29.6733 15.0163 29.1049 15.5858 28.4061 15.5858H27.9266C27.9268 15.5664 27.9274 12.2232 27.9274 12.2232H28.4062C29.1049 12.2232 29.6733 12.7916 29.6733 13.4904V14.3164H29.6733ZM11.5939 15.5858C10.8952 15.5858 10.3268 15.0164 10.3268 14.3165V13.4904C10.3268 12.7917 10.8951 12.2233 11.5939 12.2233H12.0727C12.0727 12.2233 12.0733 15.5665 12.0735 15.5858H11.5939ZM12.0873 10.6607H11.5938C11.2286 10.6607 10.8797 10.731 10.559 10.8575C10.6397 5.71846 14.8434 1.56251 20 1.56251C25.1581 1.56251 29.363 5.71893 29.4432 10.8584C29.1219 10.7313 28.7722 10.6607 28.4061 10.6607H27.9126C27.6658 6.51003 24.2114 3.20884 20 3.20884C15.7886 3.20884 12.3342 6.5101 12.0873 10.6607ZM13.6822 16.2878C13.6821 16.287 13.6819 16.2862 13.6819 16.2855C13.6523 16.0368 13.6352 15.7843 13.6352 15.5278V13.3244C16.3081 13.3896 17.9026 12.7761 20.3947 11.8168C20.7872 11.6657 21.1929 11.5095 21.6349 11.3433C23.1107 10.9314 23.9598 11.4721 25.4937 12.4486C25.7599 12.618 26.0518 12.8037 26.3648 12.9944V15.5278C26.3648 16.6896 26.0504 17.7787 25.5046 18.7172H20C19.5686 18.7172 19.2188 19.0669 19.2188 19.4984C19.2188 19.9299 19.5686 20.2797 20 20.2797H24.2285C23.1033 21.2821 21.6219 21.8928 20 21.8928C16.7477 21.8927 14.0591 19.4402 13.6822 16.2878ZM16.0767 29.0722L14.7247 26.4381C14.7764 26.4232 14.8286 26.408 14.88 26.3932C15.4342 26.233 15.9633 26.0799 16.4609 25.9233L18.6033 27.368L16.0767 29.0722ZM18.1494 38.4375L19.2126 33.775H20.7877L21.8525 38.4375H18.1494ZM33.6969 38.4375H23.4553L22.2153 33.008L22.9382 30.2911L23.7818 30.86C24.1648 31.1182 24.7035 30.9789 24.9138 30.5688L26.7993 26.8915C28.2604 27.3461 29.7428 27.8895 30.9553 28.6521C32.7928 29.8079 33.6641 31.2298 33.697 33.1265V38.4375H33.6969Z" fill="#FFB800"/>
<path d="M30.6117 34.531H26.6744C26.243 34.531 25.8932 34.8808 25.8932 35.3123C25.8932 35.7437 26.243 36.0935 26.6744 36.0935H30.6117C31.0431 36.0935 31.393 35.7437 31.393 35.3123C31.393 34.8808 31.0432 34.531 30.6117 34.531Z" fill="#FFB800"/>
<path d="M11.3459 38.4375C10.9145 38.4375 10.5647 38.7873 10.5647 39.2188C10.5647 39.6502 10.9145 40 11.3459 40H11.3481C11.7795 40 12.1282 39.6502 12.1282 39.2188C12.1282 38.7873 11.7774 38.4375 11.3459 38.4375Z" fill="#FFB800"/>
</svg>

<svg width="40" height="40" fill="none" xmlns="http://www.w3.org/2000/svg"><path d="M35.26 33.107c-.09-5.436-5.648-7.042-9.706-8.215a82.568 82.568 0 01-1.356-.4V22.25a7.992 7.992 0 002.143-1.97h2.473c1.21 0 2.194-.985 2.194-2.195V15.43c.146-.342.228-.719.228-1.114v-.826c0-.394-.082-.77-.228-1.112v-1.37C31.008 4.938 26.07 0 20 0 13.932 0 8.995 4.938 8.995 11.008v1.33l.001.032a2.813 2.813 0 00-.232 1.12v.826a2.834 2.834 0 002.83 2.832h.646a7.951 7.951 0 003.562 5.101v2.243c-.427.132-.882.263-1.356.4-4.058 1.173-9.616 2.779-9.705 8.215v6.112c0 .431.35.781.78.781h2.317a.781.781 0 000-1.563H6.303v-5.31c.033-1.897.904-3.319 2.742-4.475 1.212-.763 2.695-1.306 4.156-1.76l1.888 3.677a.79.79 0 001.132.291l.841-.568.723 2.716-1.238 5.43h-1.693a.781.781 0 000 1.562h19.624c.431 0 .781-.35.781-.781v-6.112zm-10.14-6.714l.156.045-1.35 2.634-2.528-1.704 2.141-1.445c.498.157 1.027.31 1.581.47zM20 28.31l1.567 1.057-.757 2.845h-1.62l-.757-2.845 1.568-1.057zm0-1.884l-2.636-1.778v-1.645a7.89 7.89 0 002.636.452c.924 0 1.81-.16 2.636-.451v1.644L20 26.426zm6.365-15.275l-.032-.02c-1.603-1.021-2.988-1.902-5.157-1.282a.807.807 0 00-.06.02c-.46.173-.878.334-1.283.49-2.47.95-3.82 1.47-6.198 1.403v-.626A6.372 6.372 0 0120 4.771a6.372 6.372 0 016.365 6.365v.015zm3.08 6.934a.632.632 0 01-.631.632h-1.557c.22-.498.39-1.023.504-1.569h.645c.367 0 .717-.07 1.04-.198v1.136zm.228-3.769c0 .7-.568 1.27-1.267 1.27h-.48l.001-3.363h.48c.698 0 1.266.569 1.266 1.267v.826zm-18.08 1.27a1.27 1.27 0 01-1.266-1.27v-.826c0-.698.568-1.267 1.267-1.267h.479v3.363h-.48zm.494-4.925h-.493c-.365 0-.714.07-1.035.197.08-5.14 4.284-9.295 9.441-9.295 5.158 0 9.363 4.156 9.443 9.295a2.813 2.813 0 00-1.037-.197h-.493C27.666 6.51 24.21 3.209 20 3.209s-7.666 3.301-7.913 7.452zm1.595 5.627v-.003a6.404 6.404 0 01-.047-.757v-2.204c2.673.066 4.268-.548 6.76-1.507.392-.151.798-.308 1.24-.474 1.476-.412 2.325.13 3.859 1.106.266.169.558.355.87.545v2.534c0 1.162-.314 2.25-.86 3.19H20a.781.781 0 100 1.562h4.229A6.338 6.338 0 0120 21.893c-3.252 0-5.94-2.453-6.318-5.605zm2.395 12.784l-1.352-2.634.155-.045c.554-.16 1.083-.313 1.58-.47l2.143 1.445-2.526 1.704zm2.072 9.366l1.064-4.663h1.575l1.064 4.663H18.15zm15.548 0H23.455l-1.24-5.43.723-2.717.844.569a.79.79 0 001.132-.291l1.885-3.677c1.461.454 2.944.998 4.156 1.76 1.838 1.156 2.71 2.578 2.742 4.474v5.312z" fill="#FFB800"/><path d="M30.612 34.531h-3.938a.781.781 0 000 1.563h3.938a.781.781 0 000-1.563zm-19.266 3.907a.781.781 0 000 1.562h.002a.78.78 0 10-.002-1.563z" fill="#FFB800"/></svg>
